X: 2
T: Dowd's Favourite
R: reel
M: 4/4
L: 1/8
K: Gdor
|gd {d}dd gbag|fc {c}cc fgaf|gd {d}dd gbag|fdcA BGBd|!gd {d}dd gbag|fc {c}cc fgaf|gafg efde|cAfc AGG|]!


Tune 229	Setting 25161

